svgs/sharp-regular/shop-slash.svg

<svg xmlns="http://www.w3.org/2000/svg" viewBox="0 0 640 512"><!--! Font Awesome Pro 6.6.0 by @fontawesome - https://fontawesome.com License - https://fontawesome.com/license (Commercial License) Copyright 2024 Fonticons, Inc. --><path d="M515.5 48l69.8 128L256 176 114.6 66.2 124.5 48l391 0zM76.2 36.4L48.4 14.8 29.4 .1 0 38 19 52.7 591.5 497.2l19 14.7L639.9 474l-19-14.7L576 424.4 576 224l16 0 48 0 0-48L544 0 96 0 76.2 36.4zM528 387.2L317.9 224 528 224l0 163.2zM54.7 176l14.1-25.8L30.5 120 0 176l0 48 48 0 16 0 0 264 0 24 24 0 272 0 24 0 0-24 0-89.5L284.3 320 112 320l0-96 50.5 0-60.9-48-46.9 0zM112 464l0-96 224 0 0 96-224 0z"/></svg>

<svg xmlns="http://www.w3.org/2000/svg" viewBox="0 0 640 512"><!--! Font Awesome Pro 6.4.0 by @fontawesome - https://fontawesome.com License - https://fontawesome.com/license (Commercial License) Copyright 2023 Fonticons, Inc. --><path d="M515.5 48l69.8 128H256L114.6 66.2 124.5 48h391zM76.2 36.4L48.4 14.8 29.4 .1 0 38 19 52.7 591.5 497.2l19 14.7L639.9 474l-19-14.7L576 424.4V224h16 48V176L544 0H96L76.2 36.4zM528 387.2L317.9 224H528V387.2zM54.7 176l14.1-25.8L30.5 120 0 176v48H48 64V488v24H88 360h24V488 398.5L284.3 320H112V224h50.5l-60.9-48H54.7zM112 464V368H336v96H112z"/></svg>
